frontend/public/svg/interface/folder.svg

<svg width="160" height="141" viewBox="0 0 160 141" fill="none" xmlns="http://www.w3.org/2000/svg">
<g clip-path="url(#clip0)">
<path d="M137.17 0.381298C139.914 0.68409 142.665 0.938884 145.401 1.29821C154.281 2.46779 158.688 7.35411 159.04 16.3495C159.608 30.8517 159.234 45.3292 158.605 59.8308C158.045 72.754 158.54 85.7202 158.441 98.6662C158.389 105.3 158.404 111.967 157.766 118.558C156.404 132.658 148.373 139.965 134.199 140.481C130.765 140.606 127.32 140.509 123.881 140.505C106.138 140.487 88.3945 140.531 70.652 140.424C55.4582 140.333 40.2624 140.184 25.0737 139.803C20.8677 139.633 16.6906 139.028 12.6094 137.996C6.50895 136.543 2.98304 132.377 1.9291 126.225C1.57419 124.266 1.40471 122.278 1.42289 120.287C1.71299 105.679 2.13677 91.0743 2.4022 76.4661C2.56575 67.3915 2.55665 58.3125 2.53199 49.2359C2.43025 47.4681 2.20647 45.7092 1.86225 43.9723C1.1328 38.8593 2.94149 34.8705 7.81081 33.0563C12.1293 31.3524 16.6611 30.2502 21.2791 29.7808C33.8693 28.7912 46.5036 28.2143 59.1302 27.7776C66.9957 27.506 74.8801 27.7877 82.7529 27.8189C83.8263 27.8234 84.8997 27.8189 86.0276 27.8189C86.0276 24.8156 85.9627 22.1854 86.0445 19.5596C86.1295 16.7975 86.223 14.0241 86.5416 11.2821C87.1906 5.68236 89.4705 2.98529 95.0264 2.26145C101.062 1.47522 107.173 1.28017 113.254 0.885759C116.781 0.65704 120.315 0.544436 123.846 0.379395L137.17 0.381298ZM96.8156 12.7605C96.8156 16.7852 96.7812 20.5303 96.8292 24.2743C96.8552 26.2646 97.1375 28.2551 97.1031 30.2421C97.033 34.3181 95.6754 36.0806 91.7056 37C89.3537 37.5989 86.942 37.9295 84.5155 37.9861C76.6395 37.9802 68.7628 37.7783 60.8876 37.5997C48.2415 37.295 35.5885 37.7505 22.9969 38.9639C19.8076 39.3148 16.6487 39.9028 13.5465 40.7228C10.6261 41.4577 10.3224 41.978 10.2172 44.8461C10.1361 47.0553 10.1861 49.2741 10.238 51.4872C10.5339 64.2129 10.9428 76.9372 11.1271 89.6649C11.2926 101.065 11.1479 112.472 11.2829 123.87C11.3322 128.044 12.6619 129.462 16.7894 129.924C21.9625 130.503 27.164 131.151 32.3565 131.179C51.8824 131.285 71.4087 131.126 90.9359 131.114C100.585 131.108 110.235 131.208 119.884 131.253C125.431 131.279 130.982 131.473 136.522 131.262C142.715 131.025 145.857 128.444 147.375 122.454C148.085 119.667 148.458 116.805 148.487 113.929C148.537 106.181 148.227 98.4316 148.219 90.6824C148.209 79.8378 148.281 68.9931 148.435 58.1486C148.546 49.736 148.914 41.3261 148.975 32.9136C149.011 27.9357 148.742 22.9511 148.483 17.9758C148.241 13.3456 147.736 12.8953 143.248 12.4814C142.145 12.3794 141.035 12.2503 139.929 12.2516C126.837 12.2685 113.746 12.3035 100.654 12.3576C99.3687 12.4247 98.0876 12.5593 96.8156 12.7605Z" fill="black"/>
</g>
<defs>
<clipPath id="clip0">
<rect width="159" height="141" fill="white" transform="translate(0.777344)"/>
</clipPath>
</defs>
</svg>

<svg xmlns="http://www.w3.org/2000/svg" width="160" height="141" fill="none" viewBox="0 0 160 141"><g clip-path="url(#a)"><path fill="#000" d="M137.17.381c2.744.303 5.495.558 8.231.917 8.88 1.17 13.287 6.056 13.639 15.051.568 14.503.194 28.98-.435 43.482-.56 12.923-.065 25.89-.164 38.835-.052 6.634-.037 13.301-.675 19.892-1.362 14.1-9.393 21.407-23.567 21.923-3.434.125-6.879.028-10.318.024-17.743-.018-35.487.026-53.229-.081-15.194-.091-30.39-.24-45.578-.621a61 61 0 0 1-12.465-1.807c-6.1-1.453-9.626-5.619-10.68-11.771a31.7 31.7 0 0 1-.506-5.938c.29-14.608.714-29.213.98-43.82.163-9.076.154-18.154.129-27.231a38 38 0 0 0-.67-5.264c-.73-5.113 1.08-9.102 5.949-10.916a50.7 50.7 0 0 1 13.468-3.275c12.59-.99 25.225-1.567 37.851-2.003 7.866-.272 15.75.01 23.623.04 1.073.005 2.147 0 3.275 0 0-3.002-.065-5.633.016-8.258.085-2.762.179-5.536.498-8.278.649-5.6 2.928-8.297 8.484-9.02 6.036-.787 12.147-.982 18.228-1.376 3.527-.229 7.061-.342 10.592-.507zm-40.354 12.38c0 4.024-.035 7.77.013 11.513.026 1.99.309 3.981.274 5.968-.07 4.076-1.428 5.839-5.397 6.758-2.352.599-4.764.93-7.19.986-7.877-.006-15.753-.208-23.628-.386-12.646-.305-25.3.15-37.891 1.364a64.5 64.5 0 0 0-9.45 1.759c-2.92.735-3.225 1.255-3.33 4.123-.08 2.21-.03 4.428.021 6.641.296 12.726.705 25.45.89 38.178.165 11.4.02 22.807.155 34.205.05 4.174 1.379 5.592 5.506 6.054 5.173.579 10.375 1.227 15.567 1.255 19.526.106 39.053-.053 58.58-.065 9.649-.006 19.299.094 28.948.139 5.547.026 11.098.22 16.638.009 6.193-.237 9.335-2.818 10.853-8.808a36 36 0 0 0 1.112-8.525c.05-7.748-.26-15.497-.268-23.247q-.015-16.266.216-32.533c.111-8.413.479-16.823.54-25.235.036-4.978-.233-9.963-.492-14.938-.242-4.63-.747-5.08-5.235-5.495-1.103-.102-2.213-.23-3.319-.23q-19.637.027-39.275.107a37 37 0 0 0-3.838.402"/></g><defs><clipPath id="a"><path fill="#fff" d="M.777 0h159v141h-159z"/></clipPath></defs></svg>
